X:2
T:Stäfeliflueh-Juiz  C 2+
S:Michael Wallimann (3.3.1977)
S:Dirigenten-Notiz  Edi Gasser
%C:Unterwalden (CH)
%%partsbox
%P:ABCD
M:3/4
R:Naturjodel
L:1/4
K:C
[P:A] "Anruf" G| e>c d/2e/2 | f2d/2c/2 | B/2>c/2de | !fermata!c3 || G>E c/2d/2 | e>fe | G>E c/2e/2 | 
d>ed | G D/2E/2 F/2G/2 | d>cB | g>f e/2d/2 | c>de | G>E c/2d/2 | e>fe | 
G>E c/2e/2 | d>ed | GD/2E/2 F/2G/2 | d>cB | gGe | !fermata!c2z || 
L:1/4
M:4/4
[P:B] GGec | ddf2 | BcdB | cAG2 | GGec | 
ddf2 | Bcde | f4 | G>Gec | ddfa | 
g>fed | cAG2 | G>Gec | ddf2 | "rit."Bcde | !fermata!c3z || 
M:3/4
[P:C] C/2G,/2 | C>D E/2D/2 | C/2>D/2 E E/2D/2 | C>c d/2c/2 | cBF/2E/2 | D>G, B,/2D/2 | 
G/2>F/2dd/2c/2 | B>A G/2F/2 | E/2>F/2G C/2G,/2 | C>D E/2D/2 | C/2>D/2 E E/2D/2 | 
C>c d/2e/2 | f2f/2d/2 | d>a g/2f/2 | e/2>d/2 !fermata!c/2 G/2 c/2e/2 | ged | !fermata!c2z || 
M:4/4
[P:D] e/2d/2 | cE/2F/2GE/2A/2 | GFdd/2c/2 | BD/2E/2FA | G>FEe/2d/2 | cE/2F/2GE/2A/2 | 
GFdd/2c/2 | BA/2G/2"rit."ed | c2ze/2d/2 | cE/2F/2Gg/2f/2 | egd d/2c/2 | BD/2E/2FA | 
G/2E/2 G/2c/2ee/2d/2 | cE/2F/2GE/2G/2 | Adfd/2c/2 | BG/2g/2 "rit."ed | !fermata!c3z |] 
W:
W:Reihenfolge: ABCD
%W:notiert Edi Gasser. Angaben Michael Wallimann
%W:UJV-Naturjodelsammlung: Code-Nr: 39-01
%W:http://www.naturjodler.ch/code 39.htm  (with AUDIO)
%Juni 8, 2018

